X:5
T:Ziebelen-Juiz  Bb
T:Josef von Rotz  (* 5.4.1938-7.8.2007)
T:Dirigenten-Notiz  Edi Gasser
C:Unterwalden (CH)
%%partsbox
%P:ABC
M:3/4
R:Naturjodel
L:1/8
K:Bb 
[P:A] "gemütlich, langsam" F2|B3d FD | B3d cB | A3c AF | E3A cB | 
A3F Ac | e3e dc | B3D BG | F3zF2 | B3d FD | B3d cB | 
A3c AF | E3A cB | A3F Ac | e3e "rit." dc | (B6 | B2)z2 || 
M:3/4
[P:B] c2 | F2 (3EFA c2 | e2 dcB2 | D2F2 (3dcB | c2 (3AGF E2 | 
FA ce dc | (3BAG !fermata! !breath! F2c2 | F2(3EFA c2 | e2dcB2 | 
D2F2 (3dcB | c2 (3AGF E2 | FA ce dc | !fermata!B4 || 
M:2/4
[P:C] "lüpfig" G| e>e dc | GB AG | F>d dc | BF Bd | c>F ed | 
ce dc | B2AG | F2zG | B>B eB | GB AG | F>F Bc | 
dd fd | c>F ed | ce dc | B2F2 | Fe dc | !fermata!B3z |]  
W:
%W:Reihenfolge: A - B - C
W:der Alp "Ziebele" ob Engelberg gewidmet - 8. August 1987
W:
W:notiert Edi Gasser. Angaben Josef von Rotz
W:UJV-Naturjodelsammlung: Code-Nr: 28-03
W:http://www.naturjodler.ch/code 28.htm  (with AUDIO)
%May 28, 2018

